X: 1
T:Female Rake, The
R:Jig
A:Lancashire
B:Winder
O:England
M:6/8
L:1/8
K:D
A|dcd dAF|GEA FDE|FGA Bcd|efd c2A|!
dcd dAF|GEA FDE|FGA Bed|cBc d2:|!
|:e|efd ecA|fdB ecA|efg gfe|dcB A2A|!
BGB g2B|AFA f2F|EFG Aed|cBc d2:|!
